X: 1
T: String Quartet in C major opus 1 no 6 mvt 2
C: Franz Joseph Haydn
%%abc-version 2.0
%%abcx-abcm2ps-target-version 5.9.1 (29 Sep 2008)
%%abc-creator hum2abc beta
%%abcx-conversion-date 2021/02/14 14:38:15
%%abc-copyright Copyright (c) 1994, 2000 Center for Computer Assisted Research in the Humanities
%%abc-edited-by Frances Bennion
%%abcx-initial-encoding-date 1997/04/15
%%gracespace 0 6 6
%%humdrum-veritas 2863061329
%%humdrum-veritas-data 2012138184
%%linebreak <none>
%%barnumbers 0
L: 1/4
M: 3/4
N: Derived from op01n6-02.krn
Q: "Menuetto I"
%%staves [1 2 3 4]
V: 1
V: 2
V: 3 clef=alto
V: 4 clef=bass
K: C
[V:1]c2 (3d/e/f/ [I:setbarnb2] |
[V:2]c2 (3B/c/d/ |
[V:3]E2 G |
[V:4]C2 G, |
[V:1]f/e/ a/g/ g |
[V:2]d/c/ f/e/ e |
[V:3]C z2 |
[V:4]C, z2 |
[V:1]c' c'/>b/ a3//g// |
[V:2]c3- |
[V:3]z E C |
[V:4]z E, C, |
[V:1]f2 e |
[V:2]c B c |
[V:3]D G, C |
[V:4]D, G,, C, |
[V:1]z3 |
[V:2]C2 (3B,/C/D/ |
[V:3]C2 (3D/E/F/ |
[V:4]C,2 G, |
[V:1]z3 |
[V:2]D/C/ F/E/ E |
[V:3]F/E/ A/G/ G |
[V:4]C, z2 |
[V:1]z3 |
[V:2]E F/>E/ D3//C// |
[V:3]G/>^G/ A/>=G/ F3//E// |
[V:4]C F, F, |
[V:1]z3 |
[V:2]B,2 z |
[V:3]D2 z |
[V:4]G, D, G,, |
[V:1]^f/<g/ b/<g/ f//e3// |
[V:2]z3 |
[V:3]z3 |
[V:4]z3 |
[V:1]d >c B |
[V:2]A2 G |
[V:3]D2 D |
[V:4]^F,2 G, |
[V:1](3g/^f/g/ (3b/a/g/ (3f/e/d/ |
[V:2]z3 |
[V:3]z3 |
[V:4]z3 |
[V:1]d >c B |
[V:2]A2 G |
[V:3]D2 D |
[V:4]^F,2 G, |
[V:1]A/>B/ G ^F |
[V:2]C/>D/ B, A, |
[V:3]z D D |
[V:4]C D D, |
[V:1]G2 z |
[V:2]G,2 z |
[V:3]G D G, |
[V:4]G, D, G,, |
[V:1]g2 e'/g/ |
[V:2]z/E/ G/E/ G/E/ |
[V:3]z/^C/ E/C/ E/C/ |
[V:4]A, A, A, |
[V:1]f z2 |
[V:2]F/A/ G/F/ E/F/ |
[V:3]D/F/ E/D/ ^C/D/ |
[V:4]D, z2 |
[V:1]f2 d'/f/ |
[V:2]z/D/ F/D/ F/D/ |
[V:3]z/B,/ D/B,/ D/B,/ |
[V:4]G, G, G, |
[V:1]e z2 |
[V:2]E/G/ F/E/ D/E/ |
[V:3]C/E/ D/C/ B,/C/ |
[V:4]C, z2 |
[V:1]a3/ b//c'// g |
[V:2]z c c |
[V:3]z F E |
[V:4]z F, E, |
[V:1]f3/ g//a// e |
[V:2]z B c |
[V:3]z D C |
[V:4]z D, C, |
[V:1]e/d/ (3a/g/f/ (3e/d/c/ |
[V:2]A z2 |
[V:3]F z2 |
[V:4]F, z2 |
[V:1]B2 z |
[V:2]D2 z |
[V:3]G G/F/ E/D/ |
[V:4]G, G,/F,/ E,/D,/ |
[V:1]c2 (3d/e/f/ |
[V:2]c2 (3B/c/d/ |
[V:3]E2 G |
[V:4]C,2 G, |
[V:1]f/e/ a/g/ g |
[V:2]d/c/ f/e/ e |
[V:3]C z2 |
[V:4]C, z2 |
[V:1]c' c'/>b/ a3//g// |
[V:2]c3- |
[V:3]z E C |
[V:4]z E, C, |
[V:1]f2 e |
[V:2]c B c |
[V:3]D G, C |
[V:4]D, G,, C, |
[V:1]z3 |
[V:2]C2 (3B,/C/D/ |
[V:3]C2 (3D/E/F/ |
[V:4]C,2 G, |
[V:1]z3 |
[V:2]D/C/ F/E/ E |
[V:3]F/E/ A/G/ G |
[V:4]C, z2 |
[V:1]z3 |
[V:2]E F/>E/ D3//C// |
[V:3]G/>^G/ A/>=G/ F3//E// |
[V:4]C F, F, |
[V:1]z3 |
[V:2]B,2 z |
[V:3]D2 z |
[V:4]G, D, G,, |
[V:1]^f/<g/ a/<g/ f//g3// |
[V:2]z3 |
[V:3]z3 |
[V:4]z3 |
[V:1]d3/ e//f// e |
[V:2]G2 G |
[V:3]D2 C |
[V:4]B,2 C |
[V:1](3g/a/g/ (3c'/b/a/ (3g/f/e/ |
[V:2]z3 |
[V:3]z3 |
[V:4]z3 |
[V:1]d3/ e//f/ <e/f// |
[V:2]G2 G |
[V:3]D2 C |
[V:4]B,2 C |
[V:1]g/e/ c B |
[V:2]c E D |
[V:3]E G G, |
[V:4]E, G, G,, |
[V:1]c2 z |
[V:2]C2 z |
[V:3]C z2 |
[V:4]C,2 z |
[V:1]f f f |
[V:2]A A A |
[V:3]z3 |
[V:4]F, F, F, |
[V:1](3a/g/f/ f z |
[V:2](3c/_B/A/ A z |
[V:3]z3 |
[V:4]F, F, F, |
[V:1]z3 |
[V:2]_B B B |
[V:3]d d d |
[V:4]F, F, F, |
[V:1]z3 |
[V:2](3d/c/_B/ A z |
[V:3](3f/e/d/ c z |
[V:4]F, F, F, |
[V:1]_B B z3//c// |
[V:2]G G z3//G// |
[V:3]D2 C |
[V:4]F,2 E, |
[V:1]_B/A/ A z3//d// |
[V:2]G/F/ F z |
[V:3]C z2 |
[V:4]F,3 |
[V:1]c F E |
[V:2]c F E |
[V:3]F A, G, |
[V:4]A, C C, |
[V:1]F z2 |
[V:2]F z2 |
[V:3]F, z2 |
[V:4]F, C, F,, |
[V:1]e e e |
[V:2]G G G |
[V:3]z3 |
[V:4]C, C _B, |
[V:1](3f/g/a/ a z |
[V:2](3A/G/F/ F z |
[V:3]z3 |
[V:4]A, z F, |
[V:1]z3 |
[V:2]E E E |
[V:3]G G G |
[V:4]C, C _B, |
[V:1]z3 |
[V:2](3F/G/A/ A z |
[V:3](3A/_B/c/ c z |
[V:4]A, z F, |
[V:1]d' d' d' |
[V:2]_b b b |
[V:3]z3 |
[V:4]_B, z2 |
[V:1](3e/f/g/ f z |
[V:2]_B A z |
[V:3]z3 |
[V:4]C F, z |
[V:1]_b b z3//c'// |
[V:2]g g z3//a// |
[V:3]z3 |
[V:4]z C C, |
[V:1]_b/a/ a z |
[V:2]g/f/ f z |
[V:3]z3 |
[V:4]z F, F,, |
[V:1]z2 C |
[V:2]F2 G |
[V:3]_B B z3//c// |
[V:4]D,2 E, |
[V:1]C z7// f// |
[V:2]G/F/ F z |
[V:3]_B/A/ A z |
[V:4]F,2 A, |
[V:1]d/c//_B// A G |
[V:2]_B/A//G// F E |
[V:3]F c C |
[V:4]_B, C C, |
[V:1]F z2 |]
[V:2]F z2 |]
[V:3]F z2 |]
[V:4]F, F,, z |]

